shader_type canvas_item;

varying vec2 world_position;

void vertex() {
	world_position = (MODEL_MATRIX * vec4(VERTEX, 0.0, 1.0)).xy;
}

void fragment() {
	vec2 UV_in_world_space = world_position.xy;
}