shader_type canvas_item;

uniform sampler2D SCREEN_TEXTURE : hint_screen_texture, filter_nearest;


void fragment() {
	// Called for every pixel the material is visible on.
}

//void light() {
	// Called for every pixel for every light affecting the CanvasItem.
	// Uncomment to replace the default light processing function with this one.
//}
